packages/credential/logos/x-white.svg

<svg width="24" height="24" viewBox="0 0 24 24" fill="none" xmlns="http://www.w3.org/2000/svg">
    <path
        d="M16.4332 5H18.854L13.5653 11.0446L19.787 19.27H14.9155L11.0999 14.2814L6.73399 19.27H4.31174L9.96852 12.8046L4 5H8.99523L12.4442 9.55981L16.4332 5ZM15.5836 17.821H16.925L8.26636 6.37285H6.82692L15.5836 17.821Z"
        fill="white" />
</svg>

<svg width="24" height="24" fill="none" xmlns="http://www.w3.org/2000/svg"><path d="M16.433 5h2.421l-5.289 6.045 6.222 8.225h-4.871L11.1 14.281 6.734 19.27H4.312l5.657-6.465L4 5h4.995l3.45 4.56L16.432 5zm-.85 12.821h1.342L8.266 6.373h-1.44l8.758 11.448z" fill="#fff"/></svg>
